icon-themes/sifr_svg/cmd/sc_splitcell.svg

<svg viewBox="0 0 16 16" xmlns="http://www.w3.org/2000/svg"><path d="m1 1v1h5v4h1v-5zm8 0v5h1v-4h5v-1zm-5.5996094 5c-.18566 0-.3325619.06021-.4511718.1875-.8500101.71528-1.0992188 1.09722-1.9492188 1.8125l1.9492188 1.8125c.1186099.12728.2655118.1875.4511718.1875h.3515625.2480469v-.6660156c0-.1150491-.0432994-.229501-.0996094-.3339844h8.1992184c-.05631.1044834-.099609.2189353-.099609.3339844v.6660156h.248047.351562c.18566 0 .332562-.06022.451172-.1875l1.949219-1.8125c-.85-.71528-1.099209-1.09722-1.949219-1.8125-.11861-.12729-.265512-.1875-.451172-.1875h-.351562-.248047v.6660156c0 .115042.043302.2294984.099609.3339844h-8.1992184c.056307-.104486.0996094-.2086538.0996094-.3339844v-.6660156h-.2480469zm2.5996094 4v4h-5v1h6v-5zm3 0v5h6v-1h-5v-4z" fill="#555753"/></svg>

<svg xmlns="http://www.w3.org/2000/svg" viewBox="0 0 16 16">
  <path
     style="fill:#555753"
     d="M 1 1 L 1 2 L 6 2 L 6 6 L 7 6 L 7 1 L 1 1 z M 9 1 L 9 6 L 10 6 L 10 2 L 15 2 L 15 1 L 9 1 z M 3.4003906 6 C 3.2147306 6 3.0678287 6.06021 2.9492188 6.1875 C 2.0992087 6.90278 1.85 7.28472 1 8 L 2.9492188 9.8125 C 3.0678287 9.93978 3.2147306 10 3.4003906 10 L 3.7519531 10 L 4 10 L 4 9.3339844 C 4 9.2189353 3.9567006 9.1044834 3.9003906 9 L 12.099609 9 C 12.043299 9.1044834 12 9.2189353 12 9.3339844 L 12 10 L 12.248047 10 L 12.599609 10 C 12.785269 10 12.932171 9.93978 13.050781 9.8125 L 15 8 C 14.15 7.28472 13.900791 6.90278 13.050781 6.1875 C 12.932171 6.06021 12.785269 6 12.599609 6 L 12.248047 6 L 12 6 L 12 6.6660156 C 12 6.7810576 12.043302 6.895514 12.099609 7 L 3.9003906 7 C 3.9566976 6.895514 4 6.7913462 4 6.6660156 L 4 6 L 3.7519531 6 L 3.4003906 6 z M 6 10 L 6 14 L 1 14 L 1 15 L 7 15 L 7 10 L 6 10 z M 9 10 L 9 15 L 15 15 L 15 14 L 10 14 L 10 10 L 9 10 z "
     />
</svg>
